X: 10267
T: Dod's Tartan Punk Rock Trews
R: reel
M: 4/4
K: Dmixolydian
|:CD~D2 GFDC|~D2FG AcB2-|BGAc B2BB|~d2cB AGGG|
CD~D2 GFDC|~D2FG AcB2-|BDE/2F/2G AcB2|AGFG AGGG:|
|:CD~D2 GFDA-|AB7|CD~D2 GFDB-|Bc7|
d2cA cAcd-|ddcA cAd2-|d2cA cAGA-|AGFE FFBA:|

